outputs/icons/charts/chart_bubble_outline_round.svg

<svg xmlns="http://www.w3.org/2000/svg" width="1200" height="1200" fill="none"><path fill="#000" d="M350 500c-110.5 0-200 89.5-200 200s89.5 200 200 200 200-89.5 200-200-89.5-200-200-200m0 300c-55 0-100-45-100-100s45-100 100-100 100 45 100 100-45 100-100 100m400.5-50c-82.5 0-150 67.5-150 150s67.5 150 150 150 150-67.5 150-150-67.5-150-150-150m0 200c-27.5 0-50-22.5-50-50s22.5-50 50-50 50 22.5 50 50-22.5 50-50 50M825 150c-151.5 0-275 123.5-275 275s123.5 275 275 275 275-123.5 275-275-123.5-275-275-275m0 450c-96.5 0-175-78.5-175-175s78.5-175 175-175 175 78.5 175 175-78.5 175-175 175"/></svg>

<svg width="1200" height="1200" viewBox="0 0 1200 1200" fill="none" xmlns="http://www.w3.org/2000/svg"><path d="M350 500C239.5 500 150 589.5 150 700C150 810.5 239.5 900 350 900C460.5 900 550 810.5 550 700C550 589.5 460.5 500 350 500ZM350 800C295 800 250 755 250 700C250 645 295 600 350 600C405 600 450 645 450 700C450 755 405 800 350 800ZM750.5 750C668 750 600.5 817.5 600.5 900C600.5 982.5 668 1050 750.5 1050C833 1050 900.5 982.5 900.5 900C900.5 817.5 833 750 750.5 750ZM750.5 950C723 950 700.5 927.5 700.5 900C700.5 872.5 723 850 750.5 850C778 850 800.5 872.5 800.5 900C800.5 927.5 778 950 750.5 950ZM825 150C673.5 150 550 273.5 550 425C550 576.5 673.5 700 825 700C976.5 700 1100 576.5 1100 425C1100 273.5 976.5 150 825 150ZM825 600C728.5 600 650 521.5 650 425C650 328.5 728.5 250 825 250C921.5 250 1000 328.5 1000 425C1000 521.5 921.5 600 825 600Z" fill="black"/></svg>
